X: 394
T: The Maid of Templemore
M:C
L:1/8
B:O'Neill's 394
N:"Moderate."
N:Ornaments (~) are turns over the dot.
N:"collected by F. O'Neill"
Z:Transcribed by Chris Falt, cfalt@trytel.com
K:C
G2 \
| c2cd e2GA | ~_B3c dBGE | F2EG c2c2 | c6 :|
| cd \
| e2c2 cdef | g3e f2gf | e2dc cBAG | G6cd |
| e3d cdef | g({ag}f) eg f2gf | e2dc cBGF | ~G3A _B2G2 |
| c2cd e2GA | _B3c dBGE | F2EG c2c2 | c6 |]


